public/img/logo/logo_light_v5.svg

<svg clip-rule="evenodd" fill-rule="evenodd" stroke-linejoin="round" stroke-miterlimit="2" viewBox="0 0 63 63" xmlns="http://www.w3.org/2000/svg" xmlns:xlink="http://www.w3.org/1999/xlink"><clipPath id="a"><path clip-rule="evenodd" d="m-480-26h251v232h-251z"/></clipPath><g transform="matrix(.250996 0 0 .271552 120.478 7.06034)"><path d="m-480-26h251v232h-251z" fill="none"/><g clip-path="url(#a)" fill="#fff" fill-rule="nonzero"><path d="m44.36 0c-2.79 0-5.08 2.15-5.31 4.88v.21c0 .16 0 .31-.02.47-.23 3.95-3.43 7.1-7.41 7.24h-.5c-3.97-.14-7.17-3.29-7.41-7.24 0-.16-.02-.31-.02-.47v-.21c-.23-2.73-2.52-4.88-5.31-4.88-3.64 0-6.44 3.68-4.87 7.53.78 1.92 2.74 3.1 4.82 3.1h.05c4.09.02 7.43 3.25 7.64 7.29v.49c.16 2.79 2.47 5 5.3 5h.06c2.82 0 5.14-2.21 5.3-5v-.49c.21-4.04 3.55-7.26 7.64-7.29h.05c2.08 0 4.04-1.18 4.82-3.1 1.57-3.86-1.23-7.53-4.87-7.53z" transform="matrix(3.98856 0 0 3.68664 -479.697578 -25.99344928)"/><path d="m18.49 62.93c2.79 0 5.08-2.15 5.31-4.88v-.21c0-.16 0-.31.02-.47.23-3.95 3.43-7.1 7.41-7.24h.5c3.97.14 7.17 3.29 7.41 7.24 0 .16.02.31.02.47v.21c.23 2.73 2.52 4.88 5.31 4.88 3.64 0 6.44-3.68 4.87-7.53-.78-1.92-2.74-3.1-4.82-3.1h-.05c-4.09-.02-7.43-3.25-7.64-7.29v-.49c-.16-2.79-2.47-5-5.3-5h-.06c-2.82 0-5.14 2.21-5.3 5v.49c-.21 4.04-3.55 7.26-7.64 7.29h-.05c-2.08 0-4.04 1.18-4.82 3.1-1.57 3.86 1.23 7.53 4.87 7.53z" transform="matrix(3.98856 0 0 3.68664 -480.295862 -25.99344928)"/><path d="m0 18.55c0 2.79 2.15 5.08 4.88 5.31h.21c.16 0 .31 0 .47.02 3.95.23 7.1 3.43 7.24 7.41v.5c-.14 3.97-3.29 7.17-7.24 7.41-.16 0-.31.02-.47.02h-.21c-2.73.23-4.88 2.52-4.88 5.31 0 3.64 3.68 6.44 7.53 4.87 1.92-.78 3.1-2.74 3.1-4.82v-.05c.02-4.09 3.25-7.43 7.29-7.64h.49c2.79-.16 5-2.47 5-5.3v-.06c0-2.82-2.21-5.14-5-5.3h-.49c-4.04-.21-7.26-3.55-7.29-7.64v-.05c0-2.08-1.18-4.04-3.1-4.82-3.86-1.57-7.53 1.23-7.53 4.87z" transform="matrix(3.98856 0 0 3.68664 -479.99672 -26.12248168)"/><path d="m62.93 44.5c0-2.79-2.15-5.08-4.88-5.31h-.21c-.16 0-.31 0-.47-.02-3.95-.23-7.1-3.43-7.24-7.41v-.5c.14-3.97 3.29-7.17 7.24-7.41.16 0 .31-.02.47-.02h.21c2.73-.23 4.88-2.52 4.88-5.31 0-3.64-3.68-6.44-7.53-4.87-1.92.78-3.1 2.74-3.1 4.82v.05c-.02 4.09-3.25 7.43-7.29 7.64h-.49c-2.79.16-5 2.47-5 5.3v.06c0 2.82 2.21 5.14 5 5.3h.49c4.04.21 7.26 3.55 7.29 7.64v.05c0 2.08 1.18 4.04 3.1 4.82 3.86 1.57 7.53-1.23 7.53-4.87z" transform="matrix(3.98856 0 0 3.68664 -479.99672 -25.86441688)"/></g></g></svg>

<?xml version="1.0" encoding="UTF-8" standalone="no"?>
<!DOCTYPE svg PUBLIC "-//W3C//DTD SVG 1.1//EN" "http://www.w3.org/Graphics/SVG/1.1/DTD/svg11.dtd">
<svg width="100%" height="100%" viewBox="0 0 63 63" version="1.1" xmlns="http://www.w3.org/2000/svg" xmlns:xlink="http://www.w3.org/1999/xlink" xml:space="preserve" xmlns:serif="http://www.serif.com/" style="fill-rule:evenodd;clip-rule:evenodd;stroke-linejoin:round;stroke-miterlimit:2;">
    <g id="Logo" transform="matrix(0.250996,0,0,0.271552,120.478,7.06034)">
        <rect x="-480" y="-26" width="251" height="232" style="fill:none;"/>
        <clipPath id="_clip1">
            <rect x="-480" y="-26" width="251" height="232"/>
        </clipPath>
        <g clip-path="url(#_clip1)">
            <g transform="matrix(3.98856,0,0,3.68664,-1329.56,-3216.22)">
                <g transform="matrix(1,0,0,1,213.075,865.348)">
                    <path d="M44.36,0C41.57,0 39.28,2.15 39.05,4.88L39.05,5.09C39.05,5.25 39.05,5.4 39.03,5.56C38.8,9.51 35.6,12.66 31.62,12.8L31.12,12.8C27.15,12.66 23.95,9.51 23.71,5.56C23.71,5.4 23.69,5.25 23.69,5.09L23.69,4.88C23.46,2.15 21.17,0 18.38,0C14.74,0 11.94,3.68 13.51,7.53C14.29,9.45 16.25,10.63 18.33,10.63L18.38,10.63C22.47,10.65 25.81,13.88 26.02,17.92L26.02,18.41C26.18,21.2 28.49,23.41 31.32,23.41L31.38,23.41C34.2,23.41 36.52,21.2 36.68,18.41L36.68,17.92C36.89,13.88 40.23,10.66 44.32,10.63L44.37,10.63C46.45,10.63 48.41,9.45 49.19,7.53C50.76,3.67 47.96,0 44.32,0L44.36,0Z" style="fill:white;fill-rule:nonzero;"/>
                </g>
                <g transform="matrix(1,0,0,1,212.925,865.348)">
                    <path d="M18.49,62.93C21.28,62.93 23.57,60.78 23.8,58.05L23.8,57.84C23.8,57.68 23.8,57.53 23.82,57.37C24.05,53.42 27.25,50.27 31.23,50.13L31.73,50.13C35.7,50.27 38.9,53.42 39.14,57.37C39.14,57.53 39.16,57.68 39.16,57.84L39.16,58.05C39.39,60.78 41.68,62.93 44.47,62.93C48.11,62.93 50.91,59.25 49.34,55.4C48.56,53.48 46.6,52.3 44.52,52.3L44.47,52.3C40.38,52.28 37.04,49.05 36.83,45.01L36.83,44.52C36.67,41.73 34.36,39.52 31.53,39.52L31.47,39.52C28.65,39.52 26.33,41.73 26.17,44.52L26.17,45.01C25.96,49.05 22.62,52.27 18.53,52.3L18.48,52.3C16.4,52.3 14.44,53.48 13.66,55.4C12.09,59.26 14.89,62.93 18.53,62.93L18.49,62.93Z" style="fill:white;fill-rule:nonzero;"/>
                </g>
                <g transform="matrix(1,0,0,1,213,865.313)">
                    <path d="M0,18.55C0,21.34 2.15,23.63 4.88,23.86L5.09,23.86C5.25,23.86 5.4,23.86 5.56,23.88C9.51,24.11 12.66,27.31 12.8,31.29L12.8,31.79C12.66,35.76 9.51,38.96 5.56,39.2C5.4,39.2 5.25,39.22 5.09,39.22L4.88,39.22C2.15,39.45 0,41.74 0,44.53C0,48.17 3.68,50.97 7.53,49.4C9.45,48.62 10.63,46.66 10.63,44.58L10.63,44.53C10.65,40.44 13.88,37.1 17.92,36.89L18.41,36.89C21.2,36.73 23.41,34.42 23.41,31.59L23.41,31.53C23.41,28.71 21.2,26.39 18.41,26.23L17.92,26.23C13.88,26.02 10.66,22.68 10.63,18.59L10.63,18.54C10.63,16.46 9.45,14.5 7.53,13.72C3.67,12.15 0,14.95 0,18.59L0,18.55Z" style="fill:white;fill-rule:nonzero;"/>
                </g>
                <g transform="matrix(1,0,0,1,213,865.383)">
                    <path d="M62.93,44.5C62.93,41.71 60.78,39.42 58.05,39.19L57.84,39.19C57.68,39.19 57.53,39.19 57.37,39.17C53.42,38.94 50.27,35.74 50.13,31.76L50.13,31.26C50.27,27.29 53.42,24.09 57.37,23.85C57.53,23.85 57.68,23.83 57.84,23.83L58.05,23.83C60.78,23.6 62.93,21.31 62.93,18.52C62.93,14.88 59.25,12.08 55.4,13.65C53.48,14.43 52.3,16.39 52.3,18.47L52.3,18.52C52.28,22.61 49.05,25.95 45.01,26.16L44.52,26.16C41.73,26.32 39.52,28.63 39.52,31.46L39.52,31.52C39.52,34.34 41.73,36.66 44.52,36.82L45.01,36.82C49.05,37.03 52.27,40.37 52.3,44.46L52.3,44.51C52.3,46.59 53.48,48.55 55.4,49.33C59.26,50.9 62.93,48.1 62.93,44.46L62.93,44.5Z" style="fill:white;fill-rule:nonzero;"/>
                </g>
            </g>
        </g>
    </g>
</svg>
